X: 1
T: Barrowburn
C: Addie Harper
R: Reel
M: 4/4
L: 1/8
K: Dmaj
|: D2DE FAA2 | B2BA BcdB | A2AB d3e | fedB AFEF |
D2DE FAA2 | B2BA Bcde | f2af egfe | dBAB d4 :|
| e2ef ecBA | f2fg fdBA | g2ga gecA | a2ag f2ef |
g2ga gecA | a2ag f2ef | g2ag f2ed | BAAB d4 :|